img/location-icon.svg

<svg fill="none" height="16" viewBox="0 0 16 16" width="16" xmlns="http://www.w3.org/2000/svg"><path clip-rule="evenodd" d="m13.522 6.46111c0 3.41963-3.78768 7.19859-5.08894 8.39589-.24773.228-.6179.228-.86563 0-1.30126-1.1973-5.08891-4.97626-5.08891-8.39589 0-3.03119 2.47216-5.488454 5.52172-5.488454s5.52176 2.457264 5.52176 5.488454zm-3.106 0c0 1.32614-1.08157 2.40119-2.41576 2.40119-1.33418 0-2.41575-1.07505-2.41575-2.40119 0-1.32615 1.08157-2.4012 2.41575-2.4012 1.33419 0 2.41576 1.07505 2.41576 2.4012z" fill="#008699" fill-rule="evenodd"/><path d="m10.5101 6.49439c0 1.38616-1.12369 2.50987-2.50986 2.50987-1.38616 0-2.50987-1.12371-2.50987-2.50987 0-1.38617 1.12371-2.50988 2.50987-2.50988 1.38617 0 2.50986 1.12371 2.50986 2.50988z" fill="#fff"/></svg>

<svg width="16" height="16" viewBox="0 0 16 16" fill="none" xmlns="http://www.w3.org/2000/svg">
<path fill-rule="evenodd" clip-rule="evenodd" d="M13.522 6.46111C13.522 9.88074 9.73432 13.6597 8.43306 14.857C8.18533 15.085 7.81516 15.085 7.56743 14.857C6.26617 13.6597 2.47852 9.88074 2.47852 6.46111C2.47852 3.42992 4.95068 0.972656 8.00024 0.972656C11.0498 0.972656 13.522 3.42992 13.522 6.46111ZM10.416 6.46111C10.416 7.78725 9.33443 8.8623 8.00024 8.8623C6.66606 8.8623 5.58449 7.78725 5.58449 6.46111C5.58449 5.13496 6.66606 4.05991 8.00024 4.05991C9.33443 4.05991 10.416 5.13496 10.416 6.46111Z" fill="#008699"/>
<path d="M10.5101 6.49439C10.5101 7.88055 9.38641 9.00426 8.00024 9.00426C6.61408 9.00426 5.49037 7.88055 5.49037 6.49439C5.49037 5.10822 6.61408 3.98451 8.00024 3.98451C9.38641 3.98451 10.5101 5.10822 10.5101 6.49439Z" fill="white"/>
</svg>
